korla/apps/symbolic/google-chrome-symbolic.svg

<svg style="clip-rule:evenodd;fill-rule:evenodd;stroke-linejoin:round;stroke-miterlimit:2" version="1.1" viewBox="0 0 16 16" xmlns="http://www.w3.org/2000/svg">
 <path d="m10.639 5c0.863 0.758 1.359 1.852 1.361 3-1e-3 0.702-0.187 1.392-0.539 2h4e-3l-3.463 6c4.388-1e-3 7.998-3.612 7.998-8-2e-3 -1.029-0.202-2.047-0.59-3h-4.771z" style="fill-opacity:.5;fill:rgb(223,223,223)"/>
 <path d="M1.078,4.01C0.375,5.223 0.004,6.599 0,8C0.007,11.968 2.965,15.362 6.895,15.91L9.279,11.79C8.867,11.929 8.435,12 8,12C6.575,11.998 5.254,11.235 4.541,10L4.535,10L1.078,4.01Z" style="fill-opacity:.5;fill:rgb(223,223,223)"/>
 <path d="m8 5c-1.646 0-3 1.354-3 3s1.354 3 3 3 3-1.354 3-3-1.354-3-3-3z" style="fill:rgb(223,223,223)"/>
 <path d="M8,0C10.852,0.003 13.494,1.53 14.92,4L8,4C6.103,4.001 4.455,5.35 4.08,7.21L1.695,3.08C3.209,1.139 5.538,0.001 8,0Z" style="fill-opacity:.5;fill:rgb(223,223,223)"/>
</svg>

<svg xmlns="http://www.w3.org/2000/svg" width="16" height="16" version="1.1">
 <path style="fill:#dfdfdf" d="M 8,0 A 8,8 0 0 0 1.695,3.08 L 4.08,7.21 A 4,4 0 0 1 8,4 H 14.92 A 8,8 0 0 0 8,0 Z M 1.078,4.01 A 8,8 0 0 0 0,8 8,8 0 0 0 6.895,15.91 L 9.279,11.79 A 4,4 0 0 1 8,12 4,4 0 0 1 4.541,10 H 4.535 Z M 8,5 A 3,3 0 0 0 5,8 3,3 0 0 0 8,11 3,3 0 0 0 11,8 3,3 0 0 0 8,5 Z M 10.639,5 A 4,4 0 0 1 12,8 4,4 0 0 1 11.461,10 H 11.465 L 8.002,16 A 8,8 0 0 0 16,8 8,8 0 0 0 15.41,5 Z"/>
</svg>
